X: 1
T: Pera stous pera kabous    [Em]
R: fast hasapikos, hora
O: Greece
Z: 1998 by John Chambers <jc:trillian.mit.edu>
Z: 2018 by John Chambers <jc:trillian.mit.edu>
S: Handout for MIT contra 2018-07-10 from Yaron Shragai
M: 2/4
L: 1/8
K: Em
|: B, |\
"Em"EE EF | G2 GF | GA Bc | B2 BB |\
"Am"AA GF | A2 Ac | "B7"BA GF |1 "Em"G2 z :|2 "Em"E2 z ||
|: B |\
"E7"e2 B2 | "Am"c/B/A- Ac | "B7"BA  GF | "Em"G/F/G/A/ B2 |\
"E7"e2 B2 | "Am"c/B/A- Ac | "B7"BA  GF | "Em"E3 :|
